packages/core/src/svgs/tokens/branded/TWT.svg

<svg width="24" height="24" viewBox="0 0 24 24" fill="none" xmlns="http://www.w3.org/2000/svg">
<path fill-rule="evenodd" clip-rule="evenodd" d="M3.51514 5.18429C3.52969 8.90488 3.55998 15.1922 5.01513 17.0776C6.58544 19.1127 8.79695 20.3334 10.3085 21.1668C10.8066 21.4412 11.2284 21.6746 11.5267 21.8806C11.7418 22.0298 12.057 22.0442 12.2721 21.8952C12.6902 21.6056 13.2884 21.271 13.9613 20.894C15.7036 19.9182 17.9423 18.6649 18.8205 17.2055C20.1327 15.0256 20.3902 9.06241 20.4848 5.24246C20.4946 4.84247 20.1594 4.52247 19.7612 4.5249C16.6097 4.54187 13.8394 3.37338 12.4637 2.2061C12.1606 1.94853 11.6988 1.92489 11.3915 2.17762C9.06969 4.09156 6.24362 4.43884 4.19514 4.49096C4.01378 4.49475 3.84111 4.56935 3.71404 4.69881C3.58696 4.82826 3.51558 5.00289 3.51514 5.18429ZM5.63635 6.49519C5.6509 9.12789 5.90362 14.7316 6.79999 16.0849C7.51696 17.168 9.22728 18.0443 10.4969 18.6958C11.2109 19.0612 11.7855 19.3558 11.9673 19.5758C12.254 19.3079 12.854 18.9854 13.5551 18.6091C14.8018 17.9401 16.3684 17.0983 17.0625 16.0849C17.8484 14.9365 18.3037 9.24851 18.3636 6.49519C15.4436 6.68369 12.883 5.19338 11.9673 4.42428C10.1169 5.97883 6.97574 6.45277 5.63635 6.49519Z" fill="#3274C0"/>
</svg>

<svg xmlns="http://www.w3.org/2000/svg" width="24" height="24" fill="none" viewBox="0 0 24 24">
    <path fill="#3274C0" fill-rule="evenodd" d="M3.515 5.184c.015 3.72.045 10.008 1.5 11.894 1.57 2.035 3.782 3.255 5.294 4.089.498.274.92.508 1.218.714.215.149.53.163.745.014.418-.29 1.016-.624 1.69-1.001 1.742-.976 3.98-2.23 4.858-3.688 1.313-2.18 1.57-8.144 1.665-11.964a.71.71 0 0 0-.724-.717c-3.151.017-5.922-1.152-7.297-2.319-.303-.257-.765-.281-1.072-.028C9.07 4.092 6.244 4.438 4.195 4.49a.694.694 0 0 0-.68.693m2.121 1.311c.015 2.633.268 8.237 1.164 9.59.717 1.083 2.427 1.96 3.697 2.61.714.366 1.289.66 1.47.88.287-.267.887-.59 1.588-.966 1.247-.669 2.813-1.51 3.508-2.524.785-1.149 1.24-6.836 1.3-9.59-2.92.189-5.48-1.302-6.396-2.07-1.85 1.554-4.991 2.028-6.33 2.07" clip-rule="evenodd"/>
</svg>
